svgs/light/user-pilot-tie.svg

<svg xmlns="http://www.w3.org/2000/svg" viewBox="0 0 448 512"><!--! Font Awesome Pro 6.0.0-alpha3 by @fontawesome - https://fontawesome.com License - https://fontawesome.com/license (Commercial License) --><path d="M78.54 102.4v44.04C119.1 164.9 169.4 176 224 176s104.9-11.08 145.5-29.55V102.4l21.96-22.3c4.564-4.635 7.129-10.93 7.129-17.48c0-11.35-7.602-21.24-18.44-23.99l-148.3-37.67C229.2 .3223 226.6 0 224 0C221.4 0 218.8 .3223 216.2 .9707l-148.3 37.67C57.06 41.39 49.46 51.28 49.46 62.62c0 6.555 2.564 12.85 7.129 17.48L78.54 102.4zM224 32.02l135.9 34.5l-22.43 22.78v35.69C303.3 137.5 264.5 144 224 144c-40.5 0-79.3-6.535-113.5-19.01V89.3L88.12 66.52L224 32.02zM168.8 94.31l48 24C219.1 119.4 221.6 120 224 120s4.906-.5625 7.156-1.688l48-24c7.906-3.969 11.09-13.56 7.156-21.47c-3.969-7.906-13.53-11.12-21.47-7.156L224 86.13L183.2 65.69c-7.906-3.938-17.5-.7187-21.47 7.156C157.8 80.75 160.9 90.34 168.8 94.31zM319.9 352l-51.56 68.89L249.9 384H256c8.836 0 16-7.164 16-16c0-8.838-7.164-16-16-16H192c-8.836 0-16 7.162-16 16C176 376.8 183.2 384 192 384h6.109l-18.44 36.89L128.1 352C57.41 352 0 409.3 0 480c0 17.67 14.35 32 32.03 32h383.9C433.6 512 448 497.7 448 480C448 409.3 390.6 352 319.9 352zM32 480c0-47.79 35.11-87.54 80.89-94.81L184 480H32zM224 480l-22.87-30.49L224 403.8l22.87 45.73L224 480zM264 480l71.11-94.81C380.9 392.5 416 432.2 416 480H264zM319.9 205.6C313.2 252.1 272.7 288 223.1 288c-48.71 0-89.16-35.87-95.86-82.38C127 197.8 120.3 192 112.3 192C102.5 192 94.78 200.6 96.16 210.2C105.1 272.2 159 320 223.1 320s118.9-47.8 127.8-109.8C353.2 200.6 345.6 192 335.8 192C327.8 192 320.1 197.8 319.9 205.6z"/></svg>

<svg xmlns="http://www.w3.org/2000/svg" viewBox="0 0 448 512"><!-- Font Awesome Pro 6.0.0-alpha2 by @fontawesome - https://fontawesome.com License - https://fontawesome.com/license (Commercial License) --><path d="M78.545 102.408V146.453C119.143 164.918 169.381 176 224 176S328.857 164.918 369.455 146.453V102.408L391.416 80.104C395.98 75.469 398.545 69.178 398.545 62.623C398.545 51.275 390.943 41.387 380.105 38.637L231.762 0.971C229.215 0.322 226.607 0 224 0C221.395 0 218.787 0.322 216.238 0.971L67.895 38.637C57.057 41.387 49.455 51.275 49.455 62.623C49.455 69.178 52.02 75.469 56.584 80.104L78.545 102.408ZM224.002 32.016L359.885 66.518L346.652 79.957L337.455 89.299V124.988C303.305 137.465 264.506 144 224 144C183.496 144 144.695 137.465 110.545 124.988V89.299L101.348 79.957L88.115 66.518L224.002 32.016ZM168.844 94.312L216.844 118.312C219.094 119.438 221.562 120 224 120S228.906 119.438 231.156 118.312L279.156 94.312C287.062 90.344 290.25 80.75 286.312 72.844C282.344 64.938 272.781 61.719 264.844 65.688L224 86.125L183.156 65.688C175.25 61.75 165.656 64.969 161.688 72.844C157.75 80.75 160.938 90.344 168.844 94.312ZM320 352L268.334 420.887L249.891 384H256C264.836 384 272 376.836 272 368C272 359.162 264.836 352 256 352H192C183.164 352 176 359.162 176 368C176 376.836 183.164 384 192 384H198.109L179.666 420.887L128 352C57.309 352 0 409.307 0 480C0 497.674 14.328 512 32 512H416C433.674 512 448 497.674 448 480C448 409.307 390.693 352 320 352ZM32 480C32 432.205 67.109 392.457 112.891 385.188L184 480H32ZM224 480L201.135 449.512L224 403.781L246.865 449.512L224 480ZM264 480L335.109 385.188C380.891 392.457 416 432.205 416 480H264ZM319.871 205.617C313.18 252.129 272.727 288 223.984 288C175.271 288 134.82 252.129 128.129 205.617C127.004 197.793 120.256 192 112.283 192H112.281C102.502 192 94.777 200.598 96.16 210.195C105.096 272.199 158.996 320 223.984 320S342.9 272.199 351.84 210.195C353.223 200.6 345.5 192 335.719 192C327.744 192 320.998 197.793 319.871 205.617Z"/></svg>
